X:6
T:Joan Beaton's Reel
R:reel
C:Kinnon Beaton 
B:The Beaton Collection
D:i. Kinnon & Betty Beaton, Cape Breton Fiddle, ii.Brenda Stubbert, House Sessions
Z:Paul Stewart Cranford (P.S.C.), <http://www.cranfordpub.com>
L:1/8
M:C|
Q:333
K:A
B|AE E/E/E cBAc|fefb ecBc|AE E/E/E cBAc|fbec B2 Bc|
AE E/E/E cBAc|fefb ecBA|=g2 fb fecf|ecBc A/A/A A:|
|:d|cdef eAce|fefb ecBc|AE E/E/E cBAc|fbec B2 Bd|
cdef eAce|fefb ecBc|=g2 fb fecf|ecBc A/A/A A:|
